X: 1
T: MYSTERIES OF KNOCK -- JIG
R: jig
M: 6/8
L: 1/8
Z: Contributed 20021220000340 by John Chambers jmchambers:rcn.com
K: D
 veAA edc | eAA eaf | eAA edc | fBB Baf \
| eAA edc | eAA eaf | eAA edc | fdc d2 H[|]:|
 uf \
| ecc acc | ecc eaf | ecc acc | fBB Baf \
| ecc acc | ecc efg | agf edc | fBc d2f "D.C." |]
